X: 14
T:James River Jig
R:jig
C:Tony Upton, 2/6/99
M:6/8
L:1/8
Q:3/8=126
K:A
{c}ABc Ace|faf edc|dBA EFA|GE{G}E dBG|
~A3 Ace|f/g/af edc|BAG AFA|GcB A3:|
~A3 ~A3|faf edc|~B3 BcB|BfB edc|
[E3A3] ~A3|f/g/af edc|~B3 BFA|GcB A3:|
